static/images/icons/noun_triangles_327743.svg

<svg enable-background="new 0 0 32 32" height="100" viewBox="0 0 32 32" width="100" xmlns="http://www.w3.org/2000/svg"><path d="m16 26.219 7.496-12.954h-14.992z"/><path d="m7.496 19.046-7.496 12.954h14.992z"/><path d="m17.008 32h14.992l-7.496-12.954z"/><path d="m3.587 2.992-3.587 6.199h7.174z"/><path d="m8.275 9.191h7.174l-3.587-6.199z"/><path d="m20.138 2.992-3.587 6.199h7.174z"/><path d="m24.826 9.191h7.174l-3.587-6.199z"/></svg>

<svg height='100px' width='100px'  fill="#000000" xmlns="http://www.w3.org/2000/svg" xmlns:xlink="http://www.w3.org/1999/xlink" version="1.1" x="0px" y="0px" viewBox="0 0 32 32" enable-background="new 0 0 32 32" xml:space="preserve"><g display="none"><rect x="-331.323" y="-144.635" display="inline" fill="#000000" width="473.333" height="236"></rect></g><g display="none"><g display="inline"><g><polygon fill="#000000" points="16,26.219 23.496,13.265 8.504,13.265    "></polygon></g><g><polygon fill="#000000" points="7.496,19.046 14.992,32 0,32    "></polygon></g><g><polygon points="24.504,19.046 32,32 17.008,32    "></polygon></g></g><g display="inline"><g><polygon points="3.587,2.992 7.174,9.191 0,9.191    "></polygon></g><g><polygon points="11.862,2.992 15.449,9.191 8.275,9.191    "></polygon></g><g><polygon points="20.138,2.992 23.725,9.191 16.551,9.191    "></polygon></g><g><polygon points="28.413,2.992 32,9.191 24.826,9.191    "></polygon></g></g></g><g display="none"><g display="inline"><path fill="#000000" d="M21.762,14.265L16,24.222l-5.762-9.958H21.762 M23.496,13.265H8.504L16,26.219L23.496,13.265    L23.496,13.265z"></path></g><g display="inline"><path fill="#000000" d="M7.496,21.042L13.258,31H1.734L7.496,21.042 M7.496,19.046L0,32h14.992L7.496,19.046L7.496,19.046z"></path></g><g display="inline"><path fill="#000000" d="M24.504,21.042L30.266,31H18.742L24.504,21.042 M24.504,19.046L17.008,32H32L24.504,19.046L24.504,19.046z    "></path></g><g display="inline"><path fill="#000000" d="M3.587,4.989L5.44,8.191H1.734L3.587,4.989 M3.587,2.992L0,9.191h7.174L3.587,2.992L3.587,2.992z"></path></g><g display="inline"><path fill="#000000" d="M11.862,4.989l1.853,3.202h-3.706L11.862,4.989 M11.862,2.992L8.275,9.191h7.174L11.862,2.992    L11.862,2.992z"></path></g><g display="inline"><path fill="#000000" d="M20.138,4.989l1.853,3.202h-3.706L20.138,4.989 M20.138,2.992l-3.587,6.199h7.174L20.138,2.992    L20.138,2.992z"></path></g><g display="inline"><path fill="#000000" d="M28.413,4.989l1.853,3.202H26.56L28.413,4.989 M28.413,2.992l-3.587,6.199H32L28.413,2.992L28.413,2.992z"></path></g></g><g display="none"><g display="inline"><circle fill="#000000" cx="16" cy="16" r="16"></circle></g><g display="inline"><g><polygon fill="#000000" points="9.372,13.765 22.629,13.765 16,25.221    "></polygon></g><g><g><path d="M21.762,14.265L16,24.222l-5.762-9.958H21.762 M23.496,13.265H8.504L16,26.219L23.496,13.265L23.496,13.265z"></path></g></g></g><g display="inline"><g><polygon fill="#000000" points="0.867,31.5 7.496,20.044 14.125,31.5    "></polygon></g><g><path d="M7.496,21.042L13.258,31H1.734L7.496,21.042 M7.496,19.046L0,32h14.992L7.496,19.046L7.496,19.046z"></path></g></g><g display="inline"><g><polygon fill="#000000" points="17.876,31.5 24.505,20.044 31.132,31.5    "></polygon></g><g><path d="M24.504,21.042L30.266,31H18.742L24.504,21.042 M24.504,19.046L17.008,32H32L24.504,19.046L24.504,19.046z"></path></g></g><g display="inline"><g><polygon fill="#000000" points="0.867,8.691 3.587,3.99 6.307,8.691    "></polygon></g><g><path d="M3.587,4.989L5.44,8.191H1.734L3.587,4.989 M3.587,2.992L0,9.191h7.174L3.587,2.992L3.587,2.992z"></path></g></g><g display="inline"><g><polygon fill="#000000" points="9.142,8.691 11.862,3.99 14.583,8.691    "></polygon></g><g><g><path d="M11.862,4.989l1.853,3.202h-3.706L11.862,4.989 M11.862,2.992L8.275,9.191h7.174L11.862,2.992L11.862,2.992z"></path></g></g></g><g display="inline"><g><polygon fill="#000000" points="17.418,8.691 20.137,3.99 22.857,8.691    "></polygon></g><g><path d="M20.138,4.989l1.853,3.202h-3.706L20.138,4.989 M20.138,2.992l-3.587,6.199h7.174L20.138,2.992L20.138,2.992z"></path></g></g><g display="inline"><g><polygon fill="#000000" points="25.693,8.691 28.413,3.99 31.132,8.691    "></polygon></g><g><g><path d="M28.413,4.989l1.853,3.202H26.56L28.413,4.989 M28.413,2.992l-3.587,6.199H32L28.413,2.992L28.413,2.992z"></path></g></g></g></g><g><g><polygon points="16,26.219 23.496,13.265 8.504,13.265   "></polygon><polygon points="7.496,19.046 0,32 14.992,32   "></polygon><polygon points="17.008,32 32,32 24.504,19.046   "></polygon><polygon points="3.587,2.992 0,9.191 7.174,9.191   "></polygon><polygon points="8.275,9.191 15.449,9.191 11.862,2.992   "></polygon><polygon points="20.138,2.992 16.551,9.191 23.725,9.191   "></polygon><polygon points="24.826,9.191 32,9.191 28.413,2.992   "></polygon></g></g></svg>
